assets/icons/informations/warning.svg

<svg viewBox="0 0 54 54" xmlns="http://www.w3.org/2000/svg">
    <path d="M27 11.0228L43.9425 40.2953H10.0575L27 11.0228ZM6.165 38.0453C4.4325 41.0378 6.5925 44.7953 10.0575 44.7953H43.9425C47.4075 44.7953 49.5675 41.0378 47.835 38.0453L30.8925 8.77282C29.16 5.78032 24.84 5.78032 23.1075 8.77282L6.165 38.0453ZM24.75 22.2953V26.7953C24.75 28.0328 25.7625 29.0453 27 29.0453C28.2375 29.0453 29.25 28.0328 29.25 26.7953V22.2953C29.25 21.0578 28.2375 20.0453 27 20.0453C25.7625 20.0453 24.75 21.0578 24.75 22.2953ZM24.75 33.5453H29.25V38.0453H24.75V33.5453Z" fill="inherit"/>
</svg>

<svg viewBox="0 0 54 54" xmlns="http://www.w3.org/2000/svg"><path d="m27 11 17 29.3H10L27 11ZM6.2 38c-1.8 3 .4 6.8 3.9 6.8h33.8c3.5 0 5.7-3.8 4-6.8l-17-29.2c-1.7-3-6-3-7.8 0L6.1 38Zm18.6-15.7v4.5c0 1.2 1 2.2 2.2 2.2 1.2 0 2.3-1 2.3-2.2v-4.5c0-1.2-1-2.3-2.3-2.3-1.2 0-2.3 1-2.3 2.3Zm0 11.2h4.4V38h-4.4v-4.5Z" fill="inherit"/></svg>
